images/mobile-svg-after.svg

<svg width="121" height="44" viewBox="0 0 121 44" fill="none" xmlns="http://www.w3.org/2000/svg">
<path d="M120.207 4.5709C120.368 4.0761 120.098 3.54437 119.603 3.38325C119.108 3.22213 118.576 3.49264 118.415 3.98744L120.207 4.5709ZM95.8169 27.3222L95.9637 28.2529L95.8169 27.3222ZM67.8856 11.7488L68.8278 11.7414L67.8856 11.7488ZM76.2524 1.6267L76.3175 2.56667L76.2524 1.6267ZM85.1333 9.01117L84.2471 9.33125L85.1333 9.01117ZM61.4385 34.0302L61.5419 34.9667L61.4385 34.0302ZM35.9974 17.9812L36.9381 17.9274L35.9974 17.9812ZM42.0496 10.1836L42.2818 11.0967L42.0496 10.1836ZM23.721 42.3467L23.7958 41.4074L23.721 42.3467ZM1.35382 28.4455L1.56755 27.5278C1.23275 27.4498 0.882062 27.5604 0.652496 27.8163C0.422929 28.0721 0.350932 28.4327 0.46463 28.7571L1.35382 28.4455ZM9.60265 31.3341C10.1095 31.4522 10.616 31.137 10.734 30.6302C10.8521 30.1234 10.5369 29.6169 10.0301 29.4988L9.60265 31.3341ZM3.48253 37.3679C3.65464 37.859 4.19228 38.1176 4.68336 37.9455C5.17445 37.7733 5.43303 37.2357 5.26091 36.7446L3.48253 37.3679ZM119.311 4.27917C118.415 3.98744 118.415 3.98721 118.415 3.98706C118.415 3.98711 118.415 3.98703 118.415 3.98713C118.415 3.98734 118.415 3.98785 118.415 3.98866C118.414 3.99029 118.413 3.99315 118.412 3.9972C118.409 4.00532 118.405 4.01824 118.399 4.03583C118.387 4.07101 118.369 4.12484 118.344 4.19617C118.293 4.33884 118.217 4.55142 118.113 4.82466C117.904 5.37128 117.586 6.15984 117.153 7.11647C116.284 9.03164 114.954 11.6102 113.111 14.2663C109.412 19.5972 103.734 25.1193 95.67 26.3915L95.9637 28.2529C104.757 26.8658 110.825 20.8664 114.659 15.3406C116.583 12.5683 117.966 9.88478 118.869 7.8949C119.32 6.899 119.653 6.07431 119.873 5.4958C119.984 5.20648 120.066 4.97853 120.121 4.82132C120.149 4.7427 120.17 4.68175 120.184 4.63963C120.191 4.61857 120.197 4.60221 120.201 4.59071C120.202 4.58496 120.204 4.58042 120.205 4.57711C120.206 4.57546 120.206 4.57412 120.206 4.57308C120.206 4.57256 120.207 4.57202 120.207 4.57176C120.207 4.57129 120.207 4.5709 119.311 4.27917ZM95.67 26.3915C89.3724 27.385 82.616 26.2244 77.4498 23.5212C72.2704 20.8111 68.8668 16.6634 68.8278 11.7414L66.9434 11.7563C66.99 17.6401 71.0582 22.3036 76.5762 25.1909C82.1073 28.0851 89.2738 29.3083 95.9637 28.2529L95.67 26.3915ZM68.8278 11.7414C68.8164 10.2989 69.4138 8.04971 70.7 6.12233C71.9741 4.21323 73.8384 2.73826 76.3175 2.56667L76.1874 0.686727C72.952 0.910664 70.6198 2.84771 69.1326 5.07627C67.6575 7.28655 66.9287 9.90069 66.9434 11.7563L68.8278 11.7414ZM76.3175 2.56667C78.6618 2.40442 80.3402 3.33019 81.595 4.66957C82.8778 6.03894 83.7072 7.83658 84.2471 9.33125L86.0195 8.69109C85.4472 7.10675 84.5119 5.02695 82.9702 3.38124C81.4004 1.70554 79.1945 0.478588 76.1874 0.686727L76.3175 2.56667ZM84.2471 9.33125C86.399 15.2892 84.1045 20.7911 79.4771 25.0861C74.8338 29.3959 67.9448 32.3639 61.3351 33.0936L61.5419 34.9667C68.5107 34.1973 75.7894 31.08 80.7591 26.4673C85.7447 21.8398 88.5083 15.5818 86.0195 8.69109L84.2471 9.33125ZM61.3351 33.0936C55.6661 33.7195 49.6759 32.6642 45.0528 30.0657C40.4488 27.4779 37.2513 23.4004 36.9381 17.9274L35.0567 18.0351C35.4147 24.2899 39.0998 28.8814 44.1295 31.7084C49.14 34.5247 55.5348 35.6299 61.5419 34.9667L61.3351 33.0936ZM36.9381 17.9274C36.8398 16.2109 37.2526 14.7597 38.1095 13.6258C38.968 12.4898 40.3335 11.592 42.2818 11.0967L41.8175 9.27038C39.5417 9.84888 37.7721 10.9468 36.6061 12.4897C35.4384 14.0347 34.9371 15.9455 35.0567 18.0351L36.9381 17.9274ZM42.2818 11.0967C44.0633 10.6439 45.5042 11.0057 46.7206 11.881C47.9753 12.7839 49.0364 14.2697 49.9015 16.1185L51.6084 15.3198C50.6732 13.3213 49.44 11.5162 47.8213 10.3514C46.1644 9.15916 44.1527 8.67678 41.8175 9.27038L42.2818 11.0967ZM49.9015 16.1185C52.7989 22.31 49.7348 28.7998 43.9692 33.789C38.2173 38.7662 30.1164 41.9109 23.7958 41.4074L23.6461 43.2859C30.59 43.839 39.1708 40.4331 45.2023 35.2139C51.2199 30.0067 55.0406 22.6544 51.6084 15.3198L49.9015 16.1185ZM23.7958 41.4074C18.8894 41.0166 13.4884 37.7022 9.21542 34.3442C7.10153 32.683 5.30601 31.0455 4.03886 29.8229C3.40576 29.212 2.90576 28.7059 2.56518 28.3537C2.39491 28.1777 2.26457 28.0402 2.17744 27.9474C2.13387 27.9011 2.10112 27.8659 2.07959 27.8426C2.06883 27.831 2.06087 27.8224 2.05577 27.8168C2.05321 27.8141 2.05138 27.8121 2.05026 27.8108C2.0497 27.8102 2.04933 27.8098 2.04913 27.8096C2.04903 27.8095 2.04902 27.8095 2.04897 27.8094C2.049 27.8095 2.04908 27.8096 1.35382 28.4455C0.658553 29.0814 0.658724 29.0816 0.658943 29.0818C0.659073 29.082 0.659335 29.0823 0.659601 29.0825C0.660132 29.0831 0.660851 29.0839 0.661744 29.0849C0.663536 29.0868 0.66605 29.0896 0.669289 29.0931C0.675755 29.1001 0.685105 29.1102 0.697281 29.1234C0.721628 29.1497 0.757286 29.188 0.803829 29.2375C0.896923 29.3367 1.03362 29.4808 1.2106 29.6638C1.56454 30.0298 2.07994 30.5514 2.73039 31.179C4.03035 32.4333 5.87454 34.1155 8.05104 35.8259C12.3588 39.2112 18.1414 42.8474 23.6461 43.2859L23.7958 41.4074ZM1.14009 29.3631L9.60265 31.3341L10.0301 29.4988L1.56755 27.5278L1.14009 29.3631ZM0.46463 28.7571L3.48253 37.3679L5.26091 36.7446L2.24301 28.1338L0.46463 28.7571Z" fill="#6C5FBC"/>
</svg>

<svg xmlns="http://www.w3.org/2000/svg" width="121" height="44" fill="none">
  <path fill="#6C5FBC" d="M120.207 4.57a.942.942 0 1 0-1.792-.583l1.792.584Zm-24.39 22.752.147.93-.147-.93ZM67.886 11.75l.942-.008-.942.008Zm8.366-10.122.066.94-.066-.94Zm8.881 7.384-.886.32.886-.32ZM61.44 34.031l.103.936-.104-.937ZM35.996 17.98l.941-.054-.94.054Zm6.053-7.797.232.913-.232-.913ZM23.72 42.347l.075-.94-.075.94ZM1.354 28.445l.214-.917a.942.942 0 0 0-1.103 1.23l.889-.313Zm8.249 2.89a.942.942 0 1 0 .427-1.836l-.427 1.835Zm-6.12 6.033a.942.942 0 1 0 1.778-.623l-1.778.623ZM119.31 4.279l-.896-.292v.002a.033.033 0 0 0-.003.008l-.013.039-.055.16c-.051.143-.127.355-.231.629a41.87 41.87 0 0 1-.96 2.291 46.132 46.132 0 0 1-4.042 7.15c-3.699 5.331-9.377 10.853-17.441 12.126l.294 1.86c8.793-1.386 14.861-7.386 18.695-12.911a47.995 47.995 0 0 0 4.21-7.446 42.59 42.59 0 0 0 1.004-2.4 24.152 24.152 0 0 0 .311-.855l.017-.05.004-.013.001-.004.001-.001-.896-.293ZM95.67 26.392c-6.298.993-13.054-.168-18.22-2.87-5.18-2.71-8.583-6.859-8.622-11.78l-1.885.014c.047 5.884 4.115 10.548 9.633 13.435 5.531 2.894 12.698 4.117 19.388 3.062l-.294-1.861Zm-26.842-14.65c-.012-1.443.586-3.692 1.872-5.62 1.274-1.909 3.138-3.384 5.617-3.555l-.13-1.88c-3.235.224-5.567 2.16-7.054 4.39-1.475 2.21-2.204 4.824-2.19 6.68l1.885-.016Zm7.49-9.175c2.344-.163 4.022.763 5.277 2.103 1.283 1.369 2.112 3.167 2.652 4.661l1.772-.64c-.572-1.584-1.507-3.664-3.049-5.31C81.4 1.706 79.195.48 76.187.687l.13 1.88Zm7.93 6.764c2.151 5.958-.144 11.46-4.77 15.755-4.644 4.31-11.533 7.278-18.143 8.008l.207 1.873c6.969-.77 14.247-3.887 19.217-8.5 4.986-4.627 7.75-10.885 5.26-17.776l-1.772.64ZM61.334 33.094c-5.669.625-11.66-.43-16.282-3.028-4.604-2.588-7.802-6.666-8.115-12.139l-1.881.108c.358 6.255 4.043 10.846 9.072 13.673 5.011 2.817 11.406 3.922 17.413 3.259l-.207-1.873ZM36.938 17.927c-.098-1.716.315-3.167 1.171-4.301.859-1.136 2.224-2.034 4.173-2.53l-.464-1.826c-2.276.579-4.046 1.677-5.212 3.22-1.168 1.545-1.669 3.455-1.55 5.545l1.882-.108Zm5.344-6.83c1.781-.453 3.222-.091 4.439.784 1.254.903 2.315 2.389 3.18 4.238l1.707-.8c-.935-1.998-2.168-3.803-3.787-4.968-1.657-1.192-3.668-1.674-6.003-1.08l.464 1.826Zm7.62 5.022c2.897 6.191-.167 12.68-5.933 17.67-5.752 4.977-13.853 8.122-20.173 7.618l-.15 1.879c6.944.553 15.525-2.853 21.556-8.072 6.018-5.207 9.839-12.56 6.406-19.894l-1.706.799ZM23.795 41.407c-4.907-.39-10.308-3.705-14.58-7.063a68.801 68.801 0 0 1-6.65-5.99 37.896 37.896 0 0 1-.516-.543v-.001h-.001l-.695.636a151.614 151.614 0 0 0-.694.636c0 .001 0 .002.002.003l.007.008.028.03.107.114a62.524 62.524 0 0 0 1.927 1.941 70.674 70.674 0 0 0 5.32 4.648c4.308 3.385 10.09 7.021 15.595 7.46l.15-1.879ZM1.14 29.363l8.463 1.971.427-1.835-8.462-1.971-.428 1.835Zm-.675-.606 3.018 8.61 1.778-.622-3.018-8.611-1.778.623Z"/>
</svg>
